zondicons/svg/location-restroom.svg

<svg width="20px" height="20px" viewBox="0 0 20 20" version="1.1" xmlns="http://www.w3.org/2000/svg" xmlns:xlink="http://www.w3.org/1999/xlink"><title>location-restroom</title><desc>Created with Sketch.</desc><defs></defs><g id="Page-1" stroke="none" stroke-width="1" fill="none" fill-rule="evenodd"><g id="location-restroom" fill="#000000"><path d="M12,16 L9,16 L11,11.5 L11,8.99791312 C11,7.89449617 11.8982606,7 12.9979131,7 L15.0020869,7 C16.1055038,7 17,7.89826062 17,8.99791312 L17,11.5 L19,16 L16,16 L16,20 L12,20 L12,16 Z M7,13 L9,13 L9,8.99791312 C9,7.89826062 8.10541955,7 7.00189865,7 L2.99810135,7 C1.88670635,7 1,7.89449617 1,8.99791312 L1,13 L3,13 L3,20 L7,20 L7,13 Z M5,6 C6.65685425,6 8,4.65685425 8,3 C8,1.34314575 6.65685425,0 5,0 C3.34314575,0 2,1.34314575 2,3 C2,4.65685425 3.34314575,6 5,6 Z M14,6 C15.6568542,6 17,4.65685425 17,3 C17,1.34314575 15.6568542,0 14,0 C12.3431458,0 11,1.34314575 11,3 C11,4.65685425 12.3431458,6 14,6 Z" id="Combined-Shape"></path></g></g></svg>

<svg xmlns="http://www.w3.org/2000/svg" viewBox="0 0 20 20"><path d="M12 16H9l2-4.5V9c0-1.1.9-2 2-2h2a2 2 0 0 1 2 2v2.5l2 4.5h-3v4h-4v-4zm-5-3h2V9a2 2 0 0 0-2-2H3a2 2 0 0 0-2 2v4h2v7h4v-7zM5 6a3 3 0 1 1 0-6 3 3 0 0 1 0 6zm9 0a3 3 0 1 1 0-6 3 3 0 0 1 0 6z"/></svg>
